Yaru++/mimetypes/48/model.svg

<svg height="48" viewBox="0 0 12.699375 12.699376" width="48" xmlns="http://www.w3.org/2000/svg" xmlns:xlink="http://www.w3.org/1999/xlink"><linearGradient id="a" gradientUnits="userSpaceOnUse" x1="6.35007208" x2="6.35007208" y1=".13228552" y2="12.30252024"><stop offset="0" stop-color="#fff"/><stop offset=".125" stop-color="#fff" stop-opacity=".098039"/><stop offset=".92500001" stop-color="#fff" stop-opacity=".098039"/><stop offset="1" stop-color="#fff" stop-opacity=".498039"/></linearGradient><linearGradient id="b" gradientTransform="matrix(0 -.02997086 -.02997 0 15.739288 13.625372)" gradientUnits="userSpaceOnUse" x1="512" x2="-.000001" y1="397.99393" y2="125.99394"><stop offset="0" stop-color="#f34f17"/><stop offset="1" stop-color="#fb7c38"/></linearGradient><path d="m4.1621983.39685619c-.5881821 0-1.0513178.0135407-1.4323996.0775109-.3810844.06396888-.6929229.18395549-.9213476.41184075-.2284221.22788556-.3489841.53958356-.4123567.92082886-.0633725.3812456-.0757438.8453923-.07286 1.4349838v3.239953 3.2415032c-.00286.5886863.00955 1.0525973.07286 1.4334333.063373.381246.1839346.692944.4123567.920829.2284247.227885.5402632.347873.9213476.411841.3810845.06397.8442175.07751 1.4323996.07751h4.3757445c.5881822 0 1.0510744-.01352 1.4313678-.07751.3802934-.064.6911794-.18439.9187604-.412357.227583-.227967.347433-.539443.411325-.920313.06389-.380867.07751-.844073.07751-1.4334333v-3.2415032-3.2415031c0-.5893606-.01362-1.0525644-.07751-1.4334337-.06389-.3808691-.183742-.6923443-.411325-.92031215-.227581-.22796755-.538467-.3483608-.9187604-.41235745-.3802934-.0639969-.8431856-.0775109-1.4313678-.0775109z" opacity=".1"/><path d="m4.1621983.13228584c-.5880975 0-1.0515929.014104-1.4323996.078028-.3812749.064001-.692825.18385578-.9213476.41184079-.2285623.22802654-.3489577.53890097-.4123567.92031217-.063314.3808966-.075744.8449216-.07286 1.4344671v3.2404697 3.2415032c-.00286.5889352.00958 1.0528012.07286 1.4334332.063399.381412.1837918.692285.4123567.920313.2285253.227983.54007.347839.9213476.411841.3808067.06392.8443021.07803 1.4323996.07803h4.3757445c.5880922 0 1.0508336-.01408 1.4308492-.07803.380442-.06402.691478-.183652.919279-.411841.227723-.228107.347404-.539258.411325-.920313.06386-.38069.07751-.844226.07751-1.4334332v-3.2415036-3.2415031c0-.5892071-.01365-1.0527451-.07751-1.4334337-.06392-.3810543-.183602-.69220361-.411325-.92031217-.227801-.22818688-.538837-.34781899-.919279-.41184079-.3800156-.0639501-.842757-.0780276-1.4308492-.0780276z" fill="url(#b)"/><g enable-background="new" fill="none" stroke="#fff" stroke-width="9.460623" transform="matrix(.0559668 0 0 .05589491 -2.157074 -2.39041358969)"><path d="m100 124 52-28 52 28v60l-52 28-52-28z"/><path d="m204 124-52 28-52-28"/><path d="m152 148v64"/></g><path d="m1.5878047 6.2174032v3.2415032c-.011456 2.3393386.2397775 2.5790446 2.5743936 2.5790446h4.3757445c2.3346162 0 2.5743932-.23968 2.5743932-2.5790446v-3.2415032z" fill="#fff" opacity=".08"/><path d="m6.3500706.39685619v11.64109481h2.1878722c2.3346162 0 2.5743932-.23968 2.5743932-2.5790446v-3.2415032-3.2415031c0-2.33936515-.239777-2.57904391-2.5743932-2.57904391z" fill="#fff" opacity=".08"/><path d="m4.1621983.26457104c-.5859201 0-1.0443173.014459-1.4106969.075961-.3663796.061501-.6470093.17311843-.8495194.37515253s-.3142566.48213763-.3751528.84848523c-.060896.3663479-.074183.8250344-.07131 1.4122475v3.2409864 3.2415032c-.00286.5869051.010424 1.0455171.07131 1.4117301.060896.366348.1726401.646451.3751528.848485s.4831371.313651.8495194.375153c.3663796.0615.8247768.07596 1.4106969.07596h4.3757445c.5859174 0 1.0436082-.01445 1.4091465-.07596.3655387-.06151.6457207-.173077.8474527-.375153.201733-.202073.313212-.482325.374635-.848485.06142-.36616.07545-.82463.07545-1.4117306v-3.2415032-3.2415031c0-.5871009-.01402-1.0455705-.07545-1.4117308-.06142-.3661603-.172902-.64641092-.374635-.84848523-.201732-.20207432-.481914-.31363859-.8474527-.37515253-.3655383-.0615137-.8232291-.0759605-1.4091465-.0759605z" fill="none" opacity=".4" stroke="url(#a)" stroke-width=".26457"/></svg>

<?xml version="1.0" encoding="UTF-8" standalone="no"?>
<svg
   xmlns:dc="http://purl.org/dc/elements/1.1/"
   xmlns:cc="http://creativecommons.org/ns#"
   xmlns:rdf="http://www.w3.org/1999/02/22-rdf-syntax-ns#"
   xmlns:svg="http://www.w3.org/2000/svg"
   xmlns="http://www.w3.org/2000/svg"
   xmlns:xlink="http://www.w3.org/1999/xlink"
   xmlns:sodipodi="http://sodipodi.sourceforge.net/DTD/sodipodi-0.dtd"
   xmlns:inkscape="http://www.inkscape.org/namespaces/inkscape"
   width="48"
   height="48"
   version="1.1"
   viewBox="0 0 12.699375 12.699376"
   id="svg39"
   sodipodi:docname="model.svg"
   inkscape:version="0.92.4 (5da689c313, 2019-01-14)">
  <metadata
     id="metadata43">
    <rdf:RDF>
      <cc:Work
         rdf:about="">
        <dc:format>image/svg+xml</dc:format>
        <dc:type
           rdf:resource="http://purl.org/dc/dcmitype/StillImage" />
        <dc:title></dc:title>
      </cc:Work>
    </rdf:RDF>
  </metadata>
  <sodipodi:namedview
     pagecolor="#ffffff"
     bordercolor="#666666"
     borderopacity="1"
     objecttolerance="10"
     gridtolerance="10"
     guidetolerance="10"
     inkscape:pageopacity="0"
     inkscape:pageshadow="2"
     inkscape:window-width="1920"
     inkscape:window-height="1016"
     id="namedview41"
     showgrid="false"
     inkscape:zoom="17.851067"
     inkscape:cx="24.00144"
     inkscape:cy="23.999997"
     inkscape:window-x="0"
     inkscape:window-y="27"
     inkscape:window-maximized="1"
     inkscape:current-layer="svg39" />
  <defs
     id="defs17">
    <linearGradient
       id="linearGradient4226"
       x1="529.65503"
       x2="-35.310001"
       y1="401.58401"
       y2="119.093"
       gradientTransform="matrix(0,-0.11988932,-0.11988589,0,67.016455,292.5483)"
       gradientUnits="userSpaceOnUse">
      <stop
         style="stop-color:#da1636"
         offset="0"
         id="stop2" />
      <stop
         style="stop-color:#f22c42"
         offset="1"
         id="stop4" />
    </linearGradient>
    <linearGradient
       id="linearGradient4358"
       x1="88"
       x2="488"
       y1="88"
       y2="488"
       gradientUnits="userSpaceOnUse">
      <stop
         style="stop-color:#000000;stop-opacity:.58823532"
         offset="0"
         id="stop7" />
      <stop
         style="stop-color:#000000;stop-opacity:0"
         offset=".88"
         id="stop9" />
      <stop
         style="stop-color:#000000"
         offset="1"
         id="stop11" />
    </linearGradient>
    <filter
       id="filter4346"
       width="1.026"
       height="1.022"
       x="-0.0099999998"
       y="-0.0099999998"
       style="color-interpolation-filters:sRGB">
      <feGaussianBlur
         stdDeviation="2.12"
         id="feGaussianBlur14" />
    </filter>
    <clipPath
       clipPathUnits="userSpaceOnUse"
       id="clipPath994">
      <path
         style="color:#000000;display:inline;overflow:visible;visibility:visible;fill:#cdcdcd;fill-opacity:1;fill-rule:nonzero;stroke:none;stroke-width:2;stroke-miterlimit:4;stroke-dasharray:none;stroke-opacity:1;marker:none;enable-background:accumulate"
         d="m 335.73108,62 c -8.82418,0 -9.77365,0.90635 -9.7304,9.74838 V 84 96.25162 c -0.0433,8.84203 0.90622,9.74838 9.7304,9.74838 h 16.53919 c 8.82418,0 9.7304,-0.90625 9.7304,-9.74838 V 84 71.74838 C 362.00067,62.90625 361.09445,62 352.27027,62 Z"
         id="path996"
         inkscape:connector-curvature="0"
         sodipodi:nodetypes="scccssscsss" />
    </clipPath>
    <clipPath
       clipPathUnits="userSpaceOnUse"
       id="clipPath994-7">
      <path
         style="color:#000000;display:inline;overflow:visible;visibility:visible;fill:#cdcdcd;fill-opacity:1;fill-rule:nonzero;stroke:none;stroke-width:2;stroke-miterlimit:4;stroke-dasharray:none;stroke-opacity:1;marker:none;enable-background:accumulate"
         d="m 335.73108,62 c -8.82418,0 -9.77365,0.90635 -9.7304,9.74838 V 84 96.25162 c -0.0433,8.84203 0.90622,9.74838 9.7304,9.74838 h 16.53919 c 8.82418,0 9.7304,-0.90625 9.7304,-9.74838 V 84 71.74838 C 362.00067,62.90625 361.09445,62 352.27027,62 Z"
         id="path996-0"
         inkscape:connector-curvature="0"
         sodipodi:nodetypes="scccssscsss" />
    </clipPath>
    <clipPath
       clipPathUnits="userSpaceOnUse"
       id="clipPath994-9">
      <path
         style="color:#000000;display:inline;overflow:visible;visibility:visible;fill:#cdcdcd;fill-opacity:1;fill-rule:nonzero;stroke:none;stroke-width:2;stroke-miterlimit:4;stroke-dasharray:none;stroke-opacity:1;marker:none;enable-background:accumulate"
         d="m 335.73108,62 c -8.82418,0 -9.77365,0.90635 -9.7304,9.74838 V 84 96.25162 c -0.0433,8.84203 0.90622,9.74838 9.7304,9.74838 h 16.53919 c 8.82418,0 9.7304,-0.90625 9.7304,-9.74838 V 84 71.74838 C 362.00067,62.90625 361.09445,62 352.27027,62 Z"
         id="path996-2"
         inkscape:connector-curvature="0"
         sodipodi:nodetypes="scccssscsss" />
    </clipPath>
    <clipPath
       clipPathUnits="userSpaceOnUse"
       id="clipPath994-0">
      <path
         style="color:#000000;display:inline;overflow:visible;visibility:visible;fill:#cdcdcd;fill-opacity:1;fill-rule:nonzero;stroke:none;stroke-width:2;stroke-miterlimit:4;stroke-dasharray:none;stroke-opacity:1;marker:none;enable-background:accumulate"
         d="m 335.73108,62 c -8.82418,0 -9.77365,0.90635 -9.7304,9.74838 V 84 96.25162 c -0.0433,8.84203 0.90622,9.74838 9.7304,9.74838 h 16.53919 c 8.82418,0 9.7304,-0.90625 9.7304,-9.74838 V 84 71.74838 C 362.00067,62.90625 361.09445,62 352.27027,62 Z"
         id="path996-23"
         inkscape:connector-curvature="0"
         sodipodi:nodetypes="scccssscsss" />
    </clipPath>
    <clipPath
       clipPathUnits="userSpaceOnUse"
       id="clipPath994-75">
      <path
         style="color:#000000;display:inline;overflow:visible;visibility:visible;fill:#cdcdcd;fill-opacity:1;fill-rule:nonzero;stroke:none;stroke-width:2;stroke-miterlimit:4;stroke-dasharray:none;stroke-opacity:1;marker:none;enable-background:accumulate"
         d="m 335.73108,62 c -8.82418,0 -9.77365,0.90635 -9.7304,9.74838 V 84 96.25162 c -0.0433,8.84203 0.90622,9.74838 9.7304,9.74838 h 16.53919 c 8.82418,0 9.7304,-0.90625 9.7304,-9.74838 V 84 71.74838 C 362.00067,62.90625 361.09445,62 352.27027,62 Z"
         id="path996-9"
         inkscape:connector-curvature="0"
         sodipodi:nodetypes="scccssscsss" />
    </clipPath>
    <clipPath
       clipPathUnits="userSpaceOnUse"
       id="clipPath994-2">
      <path
         style="color:#000000;display:inline;overflow:visible;visibility:visible;fill:#cdcdcd;fill-opacity:1;fill-rule:nonzero;stroke:none;stroke-width:2;stroke-miterlimit:4;stroke-dasharray:none;stroke-opacity:1;marker:none;enable-background:accumulate"
         d="m 335.73108,62 c -8.82418,0 -9.77365,0.90635 -9.7304,9.74838 V 84 96.25162 c -0.0433,8.84203 0.90622,9.74838 9.7304,9.74838 h 16.53919 c 8.82418,0 9.7304,-0.90625 9.7304,-9.74838 V 84 71.74838 C 362.00067,62.90625 361.09445,62 352.27027,62 Z"
         id="path996-28"
         inkscape:connector-curvature="0"
         sodipodi:nodetypes="scccssscsss" />
    </clipPath>
    <clipPath
       clipPathUnits="userSpaceOnUse"
       id="clipPath994-97">
      <path
         style="color:#000000;display:inline;overflow:visible;visibility:visible;fill:#cdcdcd;fill-opacity:1;fill-rule:nonzero;stroke:none;stroke-width:2;stroke-miterlimit:4;stroke-dasharray:none;stroke-opacity:1;marker:none;enable-background:accumulate"
         d="m 335.73108,62 c -8.82418,0 -9.77365,0.90635 -9.7304,9.74838 V 84 96.25162 c -0.0433,8.84203 0.90622,9.74838 9.7304,9.74838 h 16.53919 c 8.82418,0 9.7304,-0.90625 9.7304,-9.74838 V 84 71.74838 C 362.00067,62.90625 361.09445,62 352.27027,62 Z"
         id="path996-3"
         inkscape:connector-curvature="0"
         sodipodi:nodetypes="scccssscsss" />
    </clipPath>
    <clipPath
       clipPathUnits="userSpaceOnUse"
       id="clipPath994-6">
      <path
         style="color:#000000;display:inline;overflow:visible;visibility:visible;fill:#cdcdcd;fill-opacity:1;fill-rule:nonzero;stroke:none;stroke-width:2;stroke-miterlimit:4;stroke-dasharray:none;stroke-opacity:1;marker:none;enable-background:accumulate"
         d="m 335.73108,62 c -8.82418,0 -9.77365,0.90635 -9.7304,9.74838 V 84 96.25162 c -0.0433,8.84203 0.90622,9.74838 9.7304,9.74838 h 16.53919 c 8.82418,0 9.7304,-0.90625 9.7304,-9.74838 V 84 71.74838 C 362.00067,62.90625 361.09445,62 352.27027,62 Z"
         id="path996-1"
         inkscape:connector-curvature="0"
         sodipodi:nodetypes="scccssscsss" />
    </clipPath>
    <clipPath
       clipPathUnits="userSpaceOnUse"
       id="clipPath994-29">
      <path
         style="color:#000000;display:inline;overflow:visible;visibility:visible;fill:#cdcdcd;fill-opacity:1;fill-rule:nonzero;stroke:none;stroke-width:2;stroke-miterlimit:4;stroke-dasharray:none;stroke-opacity:1;marker:none;enable-background:accumulate"
         d="m 335.73108,62 c -8.82418,0 -9.77365,0.90635 -9.7304,9.74838 V 84 96.25162 c -0.0433,8.84203 0.90622,9.74838 9.7304,9.74838 h 16.53919 c 8.82418,0 9.7304,-0.90625 9.7304,-9.74838 V 84 71.74838 C 362.00067,62.90625 361.09445,62 352.27027,62 Z"
         id="path996-31"
         inkscape:connector-curvature="0"
         sodipodi:nodetypes="scccssscsss" />
    </clipPath>
    <linearGradient
       inkscape:collect="always"
       xlink:href="#linearGradient4226-0"
       id="linearGradient951"
       gradientUnits="userSpaceOnUse"
       gradientTransform="matrix(0,-0.02997086,-0.02997,0,15.739288,13.625372)"
       x1="512"
       y1="397.99393"
       x2="-1.0000001e-06"
       y2="125.99394" />
    <filter
       id="filter4346-9"
       width="1.026"
       height="1.022"
       x="-0.0099999998"
       y="-0.0099999998"
       style="color-interpolation-filters:sRGB">
      <feGaussianBlur
         stdDeviation="2.12"
         id="feGaussianBlur14-4" />
    </filter>
    <linearGradient
       id="linearGradient4358-7"
       x1="88"
       x2="488"
       y1="88"
       y2="488"
       gradientUnits="userSpaceOnUse">
      <stop
         style="stop-color:#000000;stop-opacity:.58823532"
         offset="0"
         id="stop7-8" />
      <stop
         style="stop-color:#000000;stop-opacity:0"
         offset=".88"
         id="stop9-4" />
      <stop
         style="stop-color:#000000"
         offset="1"
         id="stop11-5" />
    </linearGradient>
    <linearGradient
       id="linearGradient4226-0"
       x1="529.65503"
       x2="-35.310001"
       y1="401.58401"
       y2="119.093"
       gradientTransform="matrix(0,-0.11988932,-0.11988589,0,67.016455,292.81288)"
       gradientUnits="userSpaceOnUse">
      <stop
         style="stop-color:#2a6dcf"
         offset="0"
         id="stop2-3" />
      <stop
         style="stop-color:#3979d7"
         offset="1"
         id="stop4-6" />
    </linearGradient>
    <linearGradient
       inkscape:collect="always"
       xlink:href="#linearGradient927"
       id="linearGradient1004"
       x1="344"
       y1="62"
       x2="344"
       y2="106"
       gradientUnits="userSpaceOnUse" />
    <linearGradient
       inkscape:collect="always"
       id="linearGradient927">
      <stop
         style="stop-color:#ffffff;stop-opacity:1;"
         offset="0"
         id="stop923" />
      <stop
         id="stop933"
         offset="0.125"
         style="stop-color:#ffffff;stop-opacity:0.09803922" />
      <stop
         id="stop931"
         offset="0.92500001"
         style="stop-color:#ffffff;stop-opacity:0.09803922" />
      <stop
         style="stop-color:#ffffff;stop-opacity:0.49803922"
         offset="1"
         id="stop925" />
    </linearGradient>
    <clipPath
       clipPathUnits="userSpaceOnUse"
       id="clipPath994-06">
      <path
         style="color:#000000;display:inline;overflow:visible;visibility:visible;fill:#cdcdcd;fill-opacity:1;fill-rule:nonzero;stroke:none;stroke-width:2;stroke-miterlimit:4;stroke-dasharray:none;stroke-opacity:1;marker:none;enable-background:accumulate"
         d="m 335.73108,62 c -8.82418,0 -9.77365,0.90635 -9.7304,9.74838 V 84 96.25162 c -0.0433,8.84203 0.90622,9.74838 9.7304,9.74838 h 16.53919 c 8.82418,0 9.7304,-0.90625 9.7304,-9.74838 V 84 71.74838 C 362.00067,62.90625 361.09445,62 352.27027,62 Z"
         id="path996-32"
         inkscape:connector-curvature="0"
         sodipodi:nodetypes="scccssscsss" />
    </clipPath>
    <linearGradient
       gradientTransform="matrix(0.26457032,0,0,0.26457032,-84.662118,-16.006504)"
       inkscape:collect="always"
       xlink:href="#linearGradient927"
       id="linearGradient923"
       x1="344"
       y1="61"
       x2="344"
       y2="107"
       gradientUnits="userSpaceOnUse" />
    <linearGradient
       inkscape:collect="always"
       xlink:href="#linearGradient4246"
       id="linearGradient951-5"
       gradientUnits="userSpaceOnUse"
       gradientTransform="matrix(0,-0.02997086,-0.02997,0,15.739288,13.625372)"
       x1="512"
       y1="397.99393"
       x2="-1.0000001e-06"
       y2="125.99394" />
    <linearGradient
       inkscape:collect="always"
       id="linearGradient4246">
      <stop
         style="stop-color:#f34f17;stop-opacity:1"
         offset="0"
         id="stop4248" />
      <stop
         style="stop-color:#fb7c38;stop-opacity:1"
         offset="1"
         id="stop4250" />
    </linearGradient>
  </defs>
  <path
     style="color:#000000;font-style:normal;font-variant:normal;font-weight:normal;font-stretch:normal;font-size:medium;line-height:normal;font-family:sans-serif;font-variant-ligatures:normal;font-variant-position:normal;font-variant-caps:normal;font-variant-numeric:normal;font-variant-alternates:normal;font-feature-settings:normal;text-indent:0;text-align:start;text-decoration:none;text-decoration-line:none;text-decoration-style:solid;text-decoration-color:#000000;letter-spacing:normal;word-spacing:normal;text-transform:none;writing-mode:lr-tb;direction:ltr;text-orientation:mixed;dominant-baseline:auto;baseline-shift:baseline;text-anchor:start;white-space:normal;shape-padding:0;clip-rule:nonzero;display:inline;overflow:visible;visibility:visible;opacity:0.1;isolation:auto;mix-blend-mode:normal;color-interpolation:sRGB;color-interpolation-filters:linearRGB;solid-color:#000000;solid-opacity:1;vector-effect:none;fill:#000000;fill-opacity:1;fill-rule:nonzero;stroke:none;stroke-width:0.52914065;stroke-linecap:butt;stroke-linejoin:miter;stroke-miterlimit:4;stroke-dasharray:none;stroke-dashoffset:0;stroke-opacity:1;marker:none;color-rendering:auto;image-rendering:auto;shape-rendering:auto;text-rendering:auto;enable-background:accumulate"
     d="m 4.1621983,0.39685619 c -0.5881821,0 -1.0513178,0.0135407 -1.4323996,0.0775109 C 2.3487143,0.53833597 2.0368758,0.65832258 1.8084511,0.88620784 1.580029,1.1140934 1.459467,1.4257914 1.3960944,1.8070367 1.3327219,2.1882823 1.3203506,2.652429 1.3232344,3.2420205 v 3.239953 3.2415032 c -0.00286,0.5886863 0.00955,1.0525973 0.07286,1.4334333 0.063373,0.381246 0.1839346,0.692944 0.4123567,0.920829 0.2284247,0.227885 0.5402632,0.347873 0.9213476,0.411841 0.3810845,0.06397 0.8442175,0.07751 1.4323996,0.07751 h 4.3757445 c 0.5881822,0 1.0510744,-0.01352 1.4313678,-0.07751 0.3802934,-0.064 0.6911794,-0.18439 0.9187604,-0.412357 0.227583,-0.227967 0.347433,-0.539443 0.411325,-0.920313 0.06389,-0.380867 0.07751,-0.844073 0.07751,-1.4334333 V 6.4819735 3.2404704 c 0,-0.5893606 -0.01362,-1.0525644 -0.07751,-1.4334337 C 11.235506,1.4261676 11.115654,1.1146924 10.888071,0.88672455 10.66049,0.658757 10.349604,0.53836375 9.9693106,0.4743671 9.5890172,0.4103702 9.126125,0.3968562 8.5379428,0.3968562 Z"
     id="path1020"
     inkscape:connector-curvature="0"
     sodipodi:nodetypes="sccsccccccsscccscsccsss" />
  <path
     inkscape:connector-curvature="0"
     style="color:#000000;display:inline;overflow:visible;visibility:visible;fill:url(#linearGradient951-5);fill-opacity:1;fill-rule:nonzero;stroke:none;stroke-width:0.26457033;marker:none;enable-background:accumulate"
     d="m 4.1621983,0.13228584 c -0.5880975,0 -1.0515929,0.014104 -1.4323996,0.078028 C 2.3485238,0.27431484 2.0369737,0.39416962 1.8084511,0.62215463 1.5798888,0.85018117 1.4594934,1.1610556 1.3960944,1.5424668 1.3327804,1.9233634 1.3203504,2.3873884 1.3232344,2.9769339 v 3.2404697 3.2415032 c -0.00286,0.5889352 0.00958,1.0528012 0.07286,1.4334332 0.063399,0.381412 0.1837918,0.692285 0.4123567,0.920313 0.2285253,0.227983 0.54007,0.347839 0.9213476,0.411841 0.3808067,0.06392 0.8443021,0.07803 1.4323996,0.07803 h 4.3757445 c 0.5880922,0 1.0508336,-0.01408 1.4308492,-0.07803 0.380442,-0.06402 0.691478,-0.183652 0.919279,-0.411841 0.227723,-0.228107 0.347404,-0.539258 0.411325,-0.920313 0.06386,-0.38069 0.07751,-0.844226 0.07751,-1.4334332 V 6.2174032 2.9759001 c 0,-0.5892071 -0.01365,-1.0527451 -0.07751,-1.4334337 C 11.235476,1.1614121 11.115794,0.85026279 10.888071,0.62215423 10.66027,0.39396735 10.349234,0.27433524 9.968792,0.21031344 9.5887764,0.14636334 9.126035,0.13228584 8.5379428,0.13228584 Z"
     id="path949" />
  <g
     id="g960"
     transform="matrix(0.0559668,0,0,0.05589491,-2.1570744,-2.613992)"
     style="display:inline;stroke-width:4.73031139;enable-background:new">
    <g
       id="g954"
       transform="translate(0,3.9999775)"
       style="display:inline;stroke:#ffffff;stroke-width:9.46062279;stroke-miterlimit:4;stroke-dasharray:none;enable-background:new">
      <path
         sodipodi:nodetypes="ccccccc"
         inkscape:connector-curvature="0"
         id="path947"
         d="m 100,124 52,-28 52,28 v 60 l -52,28 -52,-28 z"
         style="fill:none;fill-rule:evenodd;stroke:#ffffff;stroke-width:9.46062279;stroke-linecap:butt;stroke-linejoin:miter;stroke-miterlimit:4;stroke-dasharray:none;stroke-opacity:1" />
      <path
         style="fill:none;fill-rule:evenodd;stroke:#ffffff;stroke-width:9.46062279;stroke-linecap:butt;stroke-linejoin:miter;stroke-miterlimit:4;stroke-dasharray:none;stroke-opacity:1"
         d="m 204,124 -52,28 -52,-28"
         id="path950"
         inkscape:connector-curvature="0"
         sodipodi:nodetypes="ccc" />
      <path
         sodipodi:nodetypes="cc"
         inkscape:connector-curvature="0"
         id="path952"
         d="m 152,148 v 64"
         style="fill:none;fill-rule:evenodd;stroke:#ffffff;stroke-width:9.46062279;stroke-linecap:butt;stroke-linejoin:miter;stroke-miterlimit:4;stroke-dasharray:none;stroke-opacity:1" />
    </g>
  </g>
  <path
     style="color:#000000;display:inline;overflow:visible;visibility:visible;opacity:0.07999998;fill:#ffffff;fill-opacity:1;fill-rule:nonzero;stroke:none;stroke-width:0.26457033;marker:none;enable-background:accumulate"
     d="m 1.5878047,6.2174032 v 3.2415032 c -0.011456,2.3393386 0.2397775,2.5790446 2.5743936,2.5790446 h 4.3757445 c 2.3346162,0 2.5743932,-0.23968 2.5743932,-2.5790446 V 6.2174032 Z"
     id="path1006"
     inkscape:connector-curvature="0" />
  <path
     style="color:#000000;display:inline;overflow:visible;visibility:visible;opacity:0.07999998;fill:#ffffff;fill-opacity:1;fill-rule:nonzero;stroke:none;stroke-width:0.26457033;marker:none;enable-background:accumulate"
     d="M 6.3500706,0.39685619 V 12.037951 h 2.1878722 c 2.3346162,0 2.5743932,-0.23968 2.5743932,-2.5790446 V 6.2174032 2.9759001 c 0,-2.33936515 -0.239777,-2.57904391 -2.5743932,-2.57904391 z"
     id="path1013"
     inkscape:connector-curvature="0" />
  <path
     id="path901"
     d="m 4.1621983,0.26457104 c -0.5859201,0 -1.0443173,0.014459 -1.4106969,0.075961 C 2.3851218,0.40203304 2.1044921,0.51365047 1.901982,0.71568457 1.6994719,0.91771867 1.5877254,1.1978222 1.5268292,1.5641698 1.4659332,1.9305177 1.4526462,2.3892042 1.4555192,2.9764173 v 3.2409864 3.2415032 c -0.00286,0.5869051 0.010424,1.0455171 0.07131,1.4117301 0.060896,0.366348 0.1726401,0.646451 0.3751528,0.848485 0.2025127,0.202034 0.4831371,0.313651 0.8495194,0.375153 0.3663796,0.0615 0.8247768,0.07596 1.4106969,0.07596 h 4.3757445 c 0.5859174,0 1.0436082,-0.01445 1.4091465,-0.07596 0.3655387,-0.06151 0.6457207,-0.173077 0.8474527,-0.375153 0.201733,-0.202073 0.313212,-0.482325 0.374635,-0.848485 0.06142,-0.36616 0.07545,-0.82463 0.07545,-1.4117306 V 6.2174032 2.9759001 c 0,-0.5871009 -0.01402,-1.0455705 -0.07545,-1.4117308 C 11.107757,1.198009 10.996275,0.91775838 10.794542,0.71568407 10.59281,0.51360975 10.312628,0.40204548 9.9470893,0.34053154 9.581551,0.27901784 9.1238602,0.26457104 8.5379428,0.26457104 Z"
     style="color:#000000;display:inline;overflow:visible;visibility:visible;opacity:0.4;fill:none;fill-opacity:1;fill-rule:nonzero;stroke:url(#linearGradient923);stroke-width:0.26457033;stroke-opacity:1;marker:none;enable-background:accumulate"
     inkscape:connector-curvature="0" />
</svg>
